!!!OTL: Jonas
!!!OTL-incipit: IM SCHWARZEN WALLFISCH
!!!COM: Ges. v. H. Langer
!!!ARE: Europa, Mitteleuropa, Deutschland
!!!SCT: F0492
!!!TXL: @@DE
!!!YEM: Copyright 1995, estate of Helmut Schaffrath.
**kern	**text
*ICvox	*
*M6/8	*
*k[f#]	*
*G:	*
!LO:TX:a:t=Lustig.	!
!LO:TX:a:t=(Aus eomer alt-assyrischen Keilschrift)	!
{8d	1._Jm
=1	=1
8.gL	ſchwar-
16f#J	.
8a	-ʒen
8.b/	Wall-
16a	-fiſch
8g	ʒu
=2	=2
(8.aL	As-
16gJ)	.
8a	-ca-
8.cc/L	-lon
16bJ}	.
{8a	da
=3	=3
8.eL	trank
16d#J	.
8e	ein
8.gL	Mann
16f#J	.
8e	drei
=4	=4
[4.b/	Tag,
8b/]	.
8r}	.
{8ddn/	bis
=5	=5
4dd/	daß
8cc/	er
4e	ſteif
16cc/	wie
16cc/	ein
=6	=6
4cc/	Be-
8b/	-ſen-
4d}	-ſtiel
{8b/	am
=7	=7
4b/	Mar-
8a	-mor-
4b/	-ti-
8cc/	-ſche
=8	=8
[4.dd/	lag,
4dd/]}	.
{8dd/	bis
=9	=9
4dd/	daß
8cc/	er
4e	ſteif
16cc/	wie
16cc/	ein
=10	=10
4cc/	Be-
8b/	-ſen-
4d}	-ſtiel
{8b/	am
=11	=11
4b/	Mar-
8a	-mor-
4cc/	-ti-
8b/	-ſche
=12	=12
[4.g	lag.
8g]	.
8r}	.
==	==
!!!AGN: Studenten -, Trink - Lied
!!!ONB: ESAC (Essen Associative Code) Database: FINK
!!!AMT: compound duple
!!!AIN: vox
!!!EED: Helmut Schaffrath
!!!EEV: 1.0
!!Text: J. V. Scheffel
!!!GTL: Studentenlieder
!!!source: Musikalischer Hausschatz der Deutschen. Eine Sammlung von über 1000 Liedern und Gesängen mit Singstimmen und Klavierbegleitung. Leipzig, Litterarisches Verlags-Haus.
!!!page: 311
!!!ENC: Anna Maria Matuszewska
!!!EEV: 2025/03/18
*-	*-
